static/logos/squarespace-wordmark-color.svg

<svg width="100" height="15" viewBox="0 0 100 15" fill="none" xmlns="http://www.w3.org/2000/svg">
<g clip-path="url(#clip0_1_947)">
<path d="M3.6925 7.65889L9.32851 2.02888C9.70929 1.65014 10.2245 1.43754 10.7615 1.43754C11.2986 1.43754 11.8137 1.65014 12.1945 2.02888L12.6325 2.46688L13.5105 1.58888L13.0725 1.14888C12.4583 0.53602 11.6262 0.191833 10.7585 0.191833C9.89085 0.191833 9.05869 0.53602 8.44453 1.14888L2.8125 6.78088L3.6925 7.65889Z" fill="black"/>
<path d="M11.2184 3.88287L10.3404 3.00487L4.70239 8.64286C4.32154 9.02346 3.8051 9.23714 3.26668 9.23696C2.72827 9.23678 2.21198 9.02274 1.83139 8.6419C1.45081 8.26099 1.2371 7.74461 1.23729 7.20618C1.23748 6.66774 1.45154 6.15148 1.83239 5.77087L6.6964 0.906867L5.81839 0.0288696L0.954394 4.89287C0.644749 5.19533 0.398197 5.55623 0.229017 5.95466C0.0598376 6.3531 -0.0286063 6.78111 -0.0311916 7.21395C-0.0337769 7.64678 0.0495479 8.07587 0.213956 8.4763C0.378364 8.87672 0.620586 9.24051 0.926598 9.54666C1.2326 9.8528 1.59632 10.0952 1.99666 10.2597C2.39701 10.4244 2.82603 10.5079 3.25888 10.5055C3.69173 10.503 4.1198 10.4148 4.51829 10.2458C4.91679 10.0768 5.2778 9.83039 5.58039 9.52087L11.2184 3.88287ZM16.8304 4.89287C16.216 4.28051 15.3839 3.93666 14.5164 3.93666C13.6489 3.93666 12.8168 4.28051 12.2024 4.89287L6.56441 10.5309L7.44236 11.4089L13.0804 5.77087C13.3644 5.48742 13.726 5.2945 14.1197 5.21648C14.5132 5.13845 14.9211 5.17881 15.2918 5.33247C15.6624 5.48613 15.9792 5.74619 16.2022 6.07979C16.4251 6.4134 16.5442 6.80563 16.5444 7.2069C16.5454 7.47419 16.4928 7.73901 16.3898 7.98563C16.2868 8.23226 16.1353 8.45575 15.9444 8.64286L11.0864 13.5069L11.9664 14.3849L16.8304 9.52087C17.4433 8.90672 17.7874 8.07449 17.7874 7.2069C17.7874 6.33925 17.4433 5.50704 16.8304 4.89287Z" fill="black"/>
<path d="M14.0916 6.75482L8.4536 12.3908C8.07234 12.7709 7.55595 12.9843 7.01764 12.9843C6.47926 12.9843 5.96289 12.7709 5.58162 12.3908L5.14363 11.9508L4.26562 12.8289L4.70362 13.2689C5.31805 13.8812 6.15017 14.2251 7.01764 14.2251C7.88511 14.2251 8.71722 13.8812 9.33161 13.2689L14.9696 7.62886L14.0916 6.75482Z" fill="black"/>
<path d="M22.9385 8.72285C22.9962 9.05731 23.1784 9.35743 23.4485 9.56285C23.7584 9.77719 24.1302 9.8834 24.5066 9.8649C24.8647 9.88773 25.2193 9.78207 25.5066 9.56689C25.621 9.47165 25.7123 9.35147 25.7732 9.21563C25.8343 9.07972 25.8634 8.93171 25.8586 8.78286C25.8626 8.64364 25.8302 8.50575 25.7645 8.38285C25.6988 8.27135 25.6085 8.17629 25.5005 8.1049C25.3717 8.01936 25.2317 7.95207 25.0845 7.9049L24.5285 7.73689L23.9986 7.59286C23.7047 7.51502 23.4188 7.4099 23.1445 7.27888C22.9091 7.16755 22.6914 7.02195 22.4985 6.84689C22.3266 6.68719 22.1902 6.49292 22.0986 6.27689C22.0007 6.03918 21.9531 5.78386 21.9585 5.52689C21.9557 5.24216 22.0172 4.96049 22.1385 4.70289C22.2555 4.45219 22.4286 4.23182 22.6445 4.05889C22.882 3.86878 23.1535 3.72558 23.4445 3.63689C23.7846 3.52913 24.1399 3.47713 24.4966 3.48289C25.2312 3.48289 25.8132 3.65622 26.2425 4.00289C26.4553 4.17423 26.6318 4.38632 26.7616 4.62671C26.8914 4.8671 26.972 5.13098 26.9985 5.40289L25.7985 5.50089C25.7392 5.22555 25.5848 4.97988 25.3625 4.80689C25.0931 4.62675 24.7721 4.53966 24.4485 4.55889C24.1432 4.54093 23.8412 4.63005 23.5945 4.81089C23.496 4.88766 23.4169 4.98645 23.3634 5.09932C23.3099 5.21219 23.2836 5.33602 23.2866 5.46089C23.2816 5.59399 23.3127 5.72597 23.3766 5.84289C23.4409 5.9508 23.5292 6.04249 23.6345 6.11087C23.763 6.19442 23.9014 6.26165 24.0466 6.31087C24.2086 6.37087 24.3925 6.4349 24.5966 6.50087L25.1045 6.65888C25.4205 6.75888 25.7066 6.86286 25.9625 6.97087C26.1979 7.07099 26.417 7.20587 26.6125 7.37087C26.7887 7.52002 26.9295 7.70653 27.0245 7.91689C27.1274 8.16508 27.1765 8.43231 27.1685 8.70087C27.1719 9.01484 27.1035 9.32538 26.9685 9.60888C26.8384 9.88117 26.6483 10.1205 26.4125 10.3089C26.1592 10.5092 25.871 10.6611 25.5625 10.7569C25.2111 10.8662 24.8446 10.9195 24.4766 10.9149C23.8257 10.9391 23.1835 10.7586 22.6405 10.3989C22.387 10.2154 22.1748 9.98099 22.0174 9.71063C21.86 9.4402 21.7609 9.13984 21.7266 8.82888L22.9385 8.72285ZM32.2285 3.50289C32.7316 3.49637 33.2311 3.58879 33.6985 3.77489C34.1255 3.94588 34.5108 4.2064 34.8285 4.53889C35.1474 4.8779 35.3943 5.27793 35.5545 5.71489C35.7304 6.1952 35.8178 6.7034 35.8125 7.2149C35.8197 7.73575 35.7267 8.25316 35.5385 8.73888C35.3631 9.18039 35.0982 9.58075 34.7605 9.9149L35.7125 11.0289V11.3749H34.5125L33.8466 10.5609C33.6052 10.6763 33.3525 10.7662 33.0925 10.8289C32.8119 10.8889 32.5255 10.9184 32.2385 10.9169C31.7297 10.92 31.2253 10.8221 30.7545 10.6289C30.33 10.4568 29.9474 10.1956 29.6325 9.86286C29.3176 9.52539 29.0746 9.12731 28.9185 8.69285C28.7461 8.21731 28.6601 7.71472 28.6645 7.20888C28.6595 6.69972 28.7455 6.19376 28.9185 5.71489C29.0756 5.27897 29.3207 4.88004 29.6385 4.54289C29.9555 4.21031 30.3392 3.94858 30.7645 3.77489C31.2293 3.58658 31.7272 3.49407 32.2285 3.50289ZM32.2185 4.57489C31.8883 4.56979 31.5611 4.6381 31.2605 4.77489C30.9844 4.90246 30.7404 5.09042 30.5466 5.32489C30.345 5.57075 30.1928 5.85326 30.0985 6.15689C29.9942 6.49496 29.9429 6.84713 29.9466 7.20087C29.9431 7.55773 29.9964 7.91279 30.1045 8.25285C30.2014 8.55924 30.3547 8.84484 30.5566 9.0949C30.7501 9.33219 30.994 9.52352 31.2705 9.6549C31.5708 9.79261 31.8982 9.86099 32.2285 9.8549C32.5585 9.8581 32.8854 9.78984 33.1866 9.6549C33.4622 9.53002 33.7062 9.34478 33.9005 9.11286C34.1047 8.86665 34.2583 8.58255 34.3525 8.27689C34.4619 7.92882 34.516 7.56575 34.5125 7.20087C34.5156 6.84129 34.4616 6.48352 34.3525 6.14087C34.2569 5.83699 34.1034 5.55448 33.9005 5.30889C33.7042 5.07695 33.459 4.8912 33.1825 4.76489C32.8789 4.63193 32.5499 4.56708 32.2185 4.57489ZM40.5266 9.9049C40.7489 9.91858 40.9716 9.8834 41.1788 9.80189C41.3861 9.72032 41.5731 9.59436 41.7266 9.43285C42.0105 9.11954 42.1525 8.63822 42.1525 7.98888V3.64089H43.3985V8.02888C43.4084 8.4784 43.3407 8.92629 43.1985 9.35285C43.0837 9.69454 42.8898 10.0043 42.6325 10.2569C42.3774 10.4985 42.0681 10.6754 41.7305 10.7729C40.9453 10.99 40.1158 10.99 39.3305 10.7729C38.9942 10.6753 38.6862 10.4983 38.4325 10.2569C38.176 10.0038 37.9822 9.69424 37.8666 9.35285C37.7245 8.92629 37.6568 8.4784 37.6666 8.02888V3.64089H38.9166V7.98888C38.9166 8.63689 39.0592 9.11822 39.3445 9.43285C39.4958 9.59219 39.6798 9.71689 39.8839 9.7984C40.0879 9.87984 40.3071 9.91617 40.5266 9.9049ZM44.6466 10.4289L47.1766 3.64889H49.0525L51.5545 10.4289V10.7689H50.3245L49.6085 8.73286H46.5225L45.7985 10.7689H44.6385L44.6466 10.4289ZM46.8985 7.66888H49.2525L48.8645 6.53689C48.7125 6.0949 48.5905 5.73689 48.4966 5.45489C48.4025 5.17289 48.3225 4.93289 48.2485 4.72089H47.9425L47.8225 5.05889C47.7825 5.17089 47.7385 5.29689 47.6885 5.43489C47.6385 5.57289 47.5845 5.73289 47.5245 5.91289C47.4645 6.09285 47.3925 6.29888 47.3066 6.53689L46.8985 7.66888ZM58.5425 10.7689H57.3425L55.1685 7.96888H54.3685V10.7689H53.1366V3.64089H55.4505C55.7972 3.64028 56.1435 3.66501 56.4866 3.71489C56.8053 3.76111 57.1095 3.8787 57.3766 4.05889C57.9392 4.42955 58.2205 4.98822 58.2205 5.73489C58.2261 6.02424 58.1766 6.31207 58.0745 6.58286C57.9881 6.81093 57.8584 7.02008 57.6925 7.19888C57.5343 7.36689 57.3482 7.50629 57.1425 7.61087C56.9363 7.71629 56.7181 7.79623 56.4925 7.84888L58.5425 10.4289V10.7689ZM54.3645 6.89689H55.4466C55.8388 6.91779 56.2291 6.82767 56.5725 6.63689C56.7109 6.54442 56.822 6.41671 56.8944 6.26695C56.9669 6.11713 56.9979 5.95072 56.9845 5.78489C57.0009 5.62029 56.9703 5.45442 56.8964 5.30648C56.8224 5.15853 56.708 5.03455 56.5666 4.94889C56.2193 4.77626 55.8338 4.69504 55.4466 4.71289H54.3645V6.89689ZM60.1305 3.64089H64.7468V4.73289H61.3468V6.59888H64.5028V7.67087H61.3528V9.67087H64.8167V10.7689H60.1305V3.64089ZM67.5763 8.72285C67.6341 9.05731 67.8167 9.35743 68.0866 9.56285C68.3962 9.77695 68.7685 9.8831 69.1444 9.8649C69.5028 9.88773 69.857 9.78207 70.1444 9.56689C70.2588 9.47165 70.3504 9.35147 70.4113 9.21563C70.4721 9.07972 70.5016 8.93171 70.4968 8.78286C70.5004 8.64364 70.4679 8.50575 70.4028 8.38285C70.3366 8.27135 70.2468 8.17629 70.1384 8.1049C70.0095 8.01936 69.8697 7.95207 69.7227 7.9049L69.1667 7.73689L68.6305 7.58888C68.3366 7.51105 68.051 7.40593 67.7763 7.2749C67.5408 7.16352 67.3233 7.01798 67.1305 6.84285C66.9582 6.68316 66.8221 6.48894 66.7305 6.27286C66.6317 6.02116 66.5842 5.75218 66.5914 5.48184C66.598 5.21149 66.6588 4.94526 66.7703 4.69889C66.8884 4.4486 67.0613 4.22837 67.2763 4.05489C67.5143 3.86478 67.7854 3.72158 68.0763 3.63289C68.4167 3.52513 68.7721 3.47313 69.1287 3.47889C69.8631 3.47889 70.4456 3.65222 70.8763 3.99889C71.089 4.17034 71.2655 4.38248 71.3944 4.62288C71.5239 4.86328 71.604 5.1271 71.6305 5.39889L70.4305 5.49689C70.3721 5.22212 70.2191 4.97653 69.9986 4.80289C69.7293 4.62248 69.4082 4.53536 69.0847 4.55489C68.7793 4.53693 68.4769 4.62605 68.2305 4.80689C68.1323 4.88387 68.0534 4.98274 68.0004 5.0956C67.9474 5.20846 67.9215 5.33218 67.9245 5.45689C67.9191 5.58981 67.9492 5.72178 68.0125 5.83889C68.0769 5.9468 68.1649 6.03852 68.2703 6.10689C68.3992 6.19045 68.5372 6.25761 68.6823 6.30689C68.8444 6.36689 69.0287 6.43087 69.2348 6.49689L69.7408 6.6549C70.0576 6.7549 70.3438 6.85888 70.5986 6.96689C70.8341 7.06701 71.0528 7.20183 71.2486 7.36689C71.4245 7.51605 71.5655 7.70255 71.6607 7.91285C71.7637 8.16111 71.8125 8.42834 71.8046 8.69689C71.8076 9.01081 71.7396 9.32141 71.6046 9.6049C71.4751 9.87761 71.2848 10.117 71.0486 10.3049C70.795 10.5036 70.5064 10.6541 70.1986 10.7489C69.8462 10.8582 69.4793 10.9115 69.1107 10.9069C68.4594 10.9309 67.8179 10.7504 67.2745 10.3909C67.0227 10.208 66.8119 9.9746 66.6552 9.70569C66.4986 9.43677 66.3992 9.13816 66.3643 8.82888L67.5763 8.72285ZM73.5805 3.64089H76.1805C76.5926 3.63025 77.0034 3.68769 77.3968 3.81089C77.6956 3.90298 77.9691 4.06241 78.1968 4.27689C78.3962 4.47141 78.5462 4.71164 78.6323 4.97689C78.7239 5.25698 78.7697 5.55018 78.7667 5.84489C78.7745 6.17695 78.7119 6.50695 78.5823 6.81285C78.4655 7.08038 78.2835 7.31418 78.0528 7.49286C77.7998 7.6799 77.5131 7.81575 77.2082 7.89285C76.842 7.98689 76.4649 8.03195 76.0866 8.02689H74.8263V10.7689H73.5847L73.5805 3.64089ZM74.8227 6.95689H76.0125C76.2137 6.9584 76.4149 6.94026 76.6125 6.90286C76.7811 6.87135 76.942 6.80972 77.0884 6.72087C77.2233 6.63659 77.3329 6.51786 77.4064 6.37689C77.4872 6.21141 77.5263 6.02882 77.5203 5.84489C77.5263 5.65641 77.4872 5.46923 77.4064 5.29889C77.3353 5.15612 77.2269 5.03522 77.0926 4.94889C76.9486 4.85942 76.789 4.79769 76.6227 4.76689C76.4245 4.72918 76.2239 4.71109 76.0227 4.71289H74.8125L74.8227 6.95689ZM79.1107 10.4289L81.6426 3.64889H83.5185L86.0185 10.4289V10.7689H84.7986L84.0847 8.73286H80.9866L80.2727 10.7689H79.1107V10.4289ZM81.3643 7.66888H83.7167L83.3287 6.53689C83.1763 6.0949 83.0546 5.73689 82.9625 5.45489L82.7143 4.72089H82.3986L82.2787 5.05889C82.2384 5.17089 82.1944 5.29689 82.1444 5.43489C82.0944 5.57289 82.0408 5.73289 81.9805 5.91289C81.9203 6.09285 81.8486 6.29888 81.7625 6.53689L81.3643 7.66888ZM93.5823 8.88285C93.4697 9.16177 93.3215 9.4252 93.1426 9.66689C92.9564 9.91466 92.7335 10.132 92.4805 10.3109C92.2064 10.5034 91.9034 10.6506 91.5823 10.7469C91.2143 10.8572 90.8311 10.9112 90.4468 10.9069C89.9498 10.9144 89.457 10.8198 88.9986 10.6289C88.5787 10.4537 88.2004 10.192 87.8884 9.86087C87.5751 9.52219 87.3335 9.12352 87.1787 8.68888C87.0088 8.21617 86.9245 7.71713 86.9287 7.2149C86.9239 6.71261 87.0088 6.21358 87.1787 5.74089C87.3341 5.30433 87.5769 4.90413 87.8926 4.56489C88.2064 4.23022 88.5866 3.96458 89.0082 3.78489C89.4685 3.59146 89.9637 3.49544 90.4625 3.50289C91.1564 3.47821 91.8414 3.66893 92.4227 4.04889C92.939 4.40089 93.3305 4.90794 93.5408 5.49689L92.2787 5.74489C92.1215 5.39848 91.8721 5.10175 91.5582 4.88689C91.2269 4.67208 90.8378 4.56327 90.4426 4.57489C90.1185 4.56779 89.7974 4.63627 89.5046 4.77489C89.2347 4.90723 88.998 5.09781 88.8106 5.33289C88.6137 5.5833 88.4673 5.86914 88.3787 6.1749C88.2763 6.51135 88.2257 6.86129 88.2287 7.21286C88.2257 7.56677 88.2775 7.91894 88.3823 8.25689C88.4763 8.5596 88.6281 8.84135 88.8287 9.08689C89.0239 9.31743 89.2679 9.50243 89.5426 9.62888C89.8414 9.76605 90.1673 9.83436 90.4968 9.82888C90.9052 9.84532 91.3082 9.72653 91.6426 9.49087C91.9372 9.27496 92.1769 8.99267 92.3426 8.66689L93.5823 8.88285ZM95.2606 3.64089H99.8763V4.73289H96.4763V6.59888H99.6384V7.67087H96.4823V9.67087H99.9468V10.7689H95.2606V3.64089Z" fill="black"/>
</g>
<defs>
<clipPath id="clip0_1_947">
<rect width="100" height="14.4578" fill="white"/>
</clipPath>
</defs>
</svg>

<svg xmlns="http://www.w3.org/2000/svg" width="426.667" height="64" fill="none" viewBox="0 0 100 15"><g fill="#000" clip-path="url(#a)"><path d="m3.692 7.659 5.637-5.63a2.032 2.032 0 0 1 2.865 0l.438.438.879-.878-.438-.44a3.276 3.276 0 0 0-4.628 0L2.812 6.78l.88.878Z"/><path d="m11.218 3.883-.878-.878-5.638 5.638a2.03 2.03 0 1 1-2.87-2.872L6.696.907 5.818.029.954 4.893A3.272 3.272 0 1 0 5.58 9.52l5.638-5.638Zm5.612 1.01a3.278 3.278 0 0 0-4.628 0L6.564 10.53l.878.878L13.08 5.77a2.03 2.03 0 0 1 3.31 2.215 2 2 0 0 1-.446.657l-4.858 4.864.88.878L16.83 9.52a3.276 3.276 0 0 0 0-4.628Z"/><path d="M14.092 6.755 8.454 12.39a2.034 2.034 0 0 1-2.872 0l-.438-.44-.878.878.438.44a3.278 3.278 0 0 0 4.628 0l5.638-5.64-.878-.874ZM22.939 8.723c.057.334.24.634.51.84.31.214.681.32 1.058.302.358.023.712-.083 1-.298a.978.978 0 0 0 .352-.784.8.8 0 0 0-.095-.4.851.851 0 0 0-.264-.278 1.677 1.677 0 0 0-.416-.2l-.555-.168-.53-.144a4.88 4.88 0 0 1-.854-.314 2.642 2.642 0 0 1-.646-.432 1.666 1.666 0 0 1-.4-.57 1.866 1.866 0 0 1-.14-.75 1.89 1.89 0 0 1 .18-.824 1.8 1.8 0 0 1 .506-.644 2.4 2.4 0 0 1 .8-.422c.34-.108.695-.16 1.052-.154.734 0 1.316.173 1.745.52a2.054 2.054 0 0 1 .756 1.4l-1.2.098a1.2 1.2 0 0 0-.435-.694c-.27-.18-.59-.267-.915-.248a1.314 1.314 0 0 0-.854.252.8.8 0 0 0-.307.65.739.739 0 0 0 .09.382.82.82 0 0 0 .258.268c.128.083.266.15.412.2.162.06.345.124.55.19l.508.158c.316.1.602.204.857.312.236.1.455.235.65.4.177.149.318.336.413.546a1.9 1.9 0 0 1 .144.784 2.06 2.06 0 0 1-.2.908 2 2 0 0 1-.556.7c-.254.2-.542.352-.85.448-.352.11-.718.162-1.086.158a3.115 3.115 0 0 1-1.837-.516 2.242 2.242 0 0 1-.913-1.57l1.212-.106Zm9.29-5.22a3.84 3.84 0 0 1 1.47.272c.427.17.812.431 1.13.764.318.339.565.739.725 1.176.176.48.264.988.258 1.5a4.063 4.063 0 0 1-.273 1.524c-.176.441-.44.842-.779 1.176l.953 1.114v.346h-1.2l-.666-.814a3.83 3.83 0 0 1-.755.268c-.28.06-.566.09-.853.088a3.847 3.847 0 0 1-1.484-.288 3.2 3.2 0 0 1-1.122-.766 3.4 3.4 0 0 1-.714-1.17 4.246 4.246 0 0 1-.255-1.484 4.274 4.274 0 0 1 .255-1.494c.157-.436.402-.835.72-1.172.317-.333.7-.594 1.126-.768.464-.188.962-.28 1.463-.272Zm-.01 1.072a2.23 2.23 0 0 0-.959.2c-.276.127-.52.315-.713.55a2.466 2.466 0 0 0-.448.832 3.42 3.42 0 0 0-.152 1.044c-.004.357.05.712.158 1.052.096.306.25.592.452.842.193.237.437.429.713.56.3.138.628.206.958.2.33.003.657-.065.959-.2.275-.125.52-.31.714-.542.204-.246.357-.53.451-.836.11-.348.164-.711.16-1.076.004-.36-.05-.717-.16-1.06a2.47 2.47 0 0 0-.451-.832 2.064 2.064 0 0 0-.719-.544 2.27 2.27 0 0 0-.964-.19Zm8.308 5.33a1.526 1.526 0 0 0 1.2-.472c.284-.313.426-.795.426-1.444V3.64h1.245v4.388c.01.45-.057.897-.2 1.324a2.288 2.288 0 0 1-.566.904 2.199 2.199 0 0 1-.901.516 4.503 4.503 0 0 1-2.4 0 2.187 2.187 0 0 1-.899-.516 2.312 2.312 0 0 1-.565-.904 3.919 3.919 0 0 1-.2-1.324V3.64h1.25v4.348c0 .648.142 1.13.427 1.444a1.522 1.522 0 0 0 1.183.472Zm4.12.524 2.53-6.78h1.876l2.502 6.78v.34h-1.23l-.717-2.036h-3.085l-.725 2.036h-1.16l.009-.34Zm2.252-2.76h2.353l-.388-1.132c-.151-.442-.273-.8-.367-1.082-.094-.282-.175-.522-.248-.734h-.306l-.12.338c-.04.112-.084.238-.135.376-.05.138-.104.298-.163.478-.06.18-.133.386-.218.624l-.409 1.132Zm11.643 3.1h-1.2l-2.173-2.8h-.8v2.8h-1.232V3.64h2.313c.347 0 .694.024 1.037.074.318.046.622.164.89.344.562.37.843.93.843 1.676.006.29-.043.577-.145.848a1.89 1.89 0 0 1-.933 1.028 2.851 2.851 0 0 1-.65.238l2.05 2.58v.34Zm-4.178-3.872h1.083c.392.02.782-.07 1.125-.26a.934.934 0 0 0 .412-.852.876.876 0 0 0-.417-.836 2.28 2.28 0 0 0-1.12-.236h-1.083v2.184Zm5.767-3.256h4.616v1.092h-3.4v1.866h3.156V7.67h-3.15v2h3.464v1.098H60.13V3.64Zm7.445 5.082c.058.334.24.634.51.84.31.214.683.32 1.058.302.359.023.713-.083 1-.298a.979.979 0 0 0 .353-.784.81.81 0 0 0-.094-.4.853.853 0 0 0-.265-.278 1.68 1.68 0 0 0-.415-.2l-.556-.168-.537-.148a4.892 4.892 0 0 1-.854-.314 2.637 2.637 0 0 1-.645-.432 1.66 1.66 0 0 1-.4-.57 2.018 2.018 0 0 1 .04-1.574c.117-.25.29-.47.505-.644.238-.19.51-.333.8-.422a3.31 3.31 0 0 1 1.053-.154c.734 0 1.317.173 1.747.52a2.04 2.04 0 0 1 .754 1.4l-1.2.098A1.202 1.202 0 0 0 70 4.803c-.27-.18-.59-.268-.914-.248a1.314 1.314 0 0 0-.854.252.798.798 0 0 0-.306.65.74.74 0 0 0 .088.382.82.82 0 0 0 .257.268c.13.083.267.15.412.2.162.06.347.124.553.19l.506.158c.317.1.603.204.858.312.235.1.454.235.65.4.175.149.317.336.412.546a1.9 1.9 0 0 1 .144.784c.003.314-.065.624-.2.908a1.98 1.98 0 0 1-.556.7c-.254.199-.543.35-.85.444-.353.11-.72.162-1.088.158a3.119 3.119 0 0 1-1.837-.516 2.242 2.242 0 0 1-.91-1.562l1.212-.106Zm6.005-5.082h2.6c.412-.01.822.047 1.216.17.299.092.572.251.8.466.2.194.35.435.435.7.092.28.138.573.135.868a2.34 2.34 0 0 1-.185.968 1.741 1.741 0 0 1-.53.68c-.252.187-.539.323-.844.4-.366.094-.743.139-1.121.134h-1.26v2.742h-1.242L73.58 3.64Zm1.242 3.316h1.19c.2.001.402-.017.6-.054.168-.032.329-.093.475-.182a.891.891 0 0 0 .318-.344c.081-.166.12-.348.114-.532a1.186 1.186 0 0 0-.114-.546.885.885 0 0 0-.313-.35 1.36 1.36 0 0 0-.47-.182 3.06 3.06 0 0 0-.6-.054h-1.21l.01 2.244Zm4.288 3.472 2.532-6.78h1.876l2.5 6.78v.34h-1.22l-.714-2.036h-3.098l-.714 2.036H79.11v-.34Zm2.253-2.76h2.353l-.388-1.132c-.153-.442-.274-.8-.366-1.082l-.249-.734H82.4l-.12.338-.135.376c-.05.138-.103.298-.163.478-.06.18-.132.386-.218.624l-.399 1.132Zm12.218 1.214c-.112.279-.26.542-.44.784-.186.248-.408.465-.661.644-.275.192-.578.34-.899.436-.368.11-.75.164-1.135.16a3.624 3.624 0 0 1-1.448-.278 3.24 3.24 0 0 1-1.11-.768 3.412 3.412 0 0 1-.71-1.172 4.252 4.252 0 0 1-.25-1.474 4.238 4.238 0 0 1 .25-1.474 3.307 3.307 0 0 1 1.83-1.956c.46-.194.955-.29 1.454-.282a3.365 3.365 0 0 1 1.96.546c.516.352.907.859 1.118 1.448l-1.262.248a2.083 2.083 0 0 0-.72-.858 1.945 1.945 0 0 0-1.116-.312 2.085 2.085 0 0 0-.938.2 2.03 2.03 0 0 0-.694.558c-.197.25-.344.536-.432.842a3.463 3.463 0 0 0-.15 1.038c-.003.354.049.706.153 1.044.094.303.246.584.447.83.195.23.439.415.714.542.298.137.624.205.954.2a1.86 1.86 0 0 0 1.146-.338c.294-.216.534-.498.7-.824l1.24.216Zm1.679-5.242h4.615v1.092h-3.4v1.866h3.162V7.67h-3.156v2h3.465v1.098H95.26V3.64Z"/></g><defs><clipPath id="a"><path fill="#fff" d="M0 0h100v14.458H0z"/></clipPath></defs></svg>
